svg/LeftHanded/sw-resize.svg

<?xml version="1.0" encoding="UTF-8" standalone="no"?>
<!-- Created with Inkscape (http://www.inkscape.org/) -->
<svg
   xmlns:dc="http://purl.org/dc/elements/1.1/"
   xmlns:cc="http://creativecommons.org/ns#"
   xmlns:rdf="http://www.w3.org/1999/02/22-rdf-syntax-ns#"
   xmlns:svg="http://www.w3.org/2000/svg"
   xmlns="http://www.w3.org/2000/svg"
   xmlns:xlink="http://www.w3.org/1999/xlink"
   xmlns:sodipodi="http://sodipodi.sourceforge.net/DTD/sodipodi-0.dtd"
   xmlns:inkscape="http://www.inkscape.org/namespaces/inkscape"
   version="1.0"
   width="500"
   height="500"
   viewBox="0 0 1000 1000"
   id="page"
   xml:space="preserve"
   sodipodi:version="0.32"
   inkscape:version="0.46"
   sodipodi:docname="sw-resize.svg"
   inkscape:output_extension="org.inkscape.output.svg.inkscape"><metadata
     id="metadata6519"><rdf:RDF><cc:Work
         rdf:about=""><dc:format>image/svg+xml</dc:format><dc:type
           rdf:resource="http://purl.org/dc/dcmitype/StillImage" /></cc:Work></rdf:RDF></metadata><sodipodi:namedview
     guidetolerance="10.0"
     gridtolerance="10.0"
     objecttolerance="10.0"
     borderopacity="1.0"
     bordercolor="#666666"
     pagecolor="#ffffff"
     id="base"
     showgrid="false"
     inkscape:zoom="1.108"
     inkscape:cx="250"
     inkscape:cy="250"
     inkscape:window-width="640"
     inkscape:window-height="783"
     inkscape:window-x="0"
     inkscape:window-y="351"
     inkscape:current-layer="page" /><defs
     id="defs38"><linearGradient
       id="linearGradient2218"><stop
         style="stop-color:#999999;stop-opacity:1"
         offset="0"
         id="stop2220" /><stop
         style="stop-color:#555555;stop-opacity:1"
         offset="1"
         id="stop2222" /></linearGradient><linearGradient
       x1="303.29138"
       y1="115.33563"
       x2="303.29138"
       y2="508.32028"
       id="linearGradient4206"
       xlink:href="#linearGradient2218"
       gradientUnits="userSpaceOnUse"
       gradientTransform="translate(-3.6755955e-6,1.1845489e-5)" /></defs><path
     d="M 555.35972,167.46512 C 535.16172,167.85012 417.41772,321.16412 400.16172,320.85112 C 381.41772,321.16412 400.45172,140.13312 391.16172,131.85012 C 381.41772,123.16412 327.41772,123.16412 319.16172,131.85012 C 309.41772,141.16412 313.21072,481.60012 320.35872,489.46512 C 330.36072,500.46712 669.41772,501.16412 679.16172,491.85212 C 690.88272,480.64712 687.41772,429.16512 679.16172,419.85212 C 669.41772,411.16512 489.41772,429.16512 490.16172,410.85212 C 489.41872,393.16512 643.16172,275.85212 645.36172,257.46812 C 642.41772,222.16412 588.41772,168.16512 555.35972,167.46512 z"
     style="opacity:1;fill:url(#linearGradient4206);fill-opacity:1;stroke:#000000;stroke-width:20;stroke-linecap:round;stroke-linejoin:round;stroke-miterlimit:1"
     id="path4191" /></svg>

<?xml version="1.0" encoding="UTF-8" standalone="no"?>
<!-- Created with Inkscape (http://www.inkscape.org/) -->

<svg
   xmlns:dc="http://purl.org/dc/elements/1.1/"
   xmlns:cc="http://creativecommons.org/ns#"
   xmlns:rdf="http://www.w3.org/1999/02/22-rdf-syntax-ns#"
   xmlns:svg="http://www.w3.org/2000/svg"
   xmlns="http://www.w3.org/2000/svg"
   xmlns:xlink="http://www.w3.org/1999/xlink"
   version="1.0"
   width="500"
   height="500"
   viewBox="0 0 1000 1000"
   id="page"
   xml:space="preserve"><metadata
     id="metadata11"><rdf:RDF><cc:Work
         rdf:about=""><dc:format>image/svg+xml</dc:format><dc:type
           rdf:resource="http://purl.org/dc/dcmitype/StillImage" /><dc:title></dc:title></cc:Work></rdf:RDF></metadata><defs
     id="defs38"><linearGradient
       id="linearGradient2218"><stop
         id="stop2220"
         style="stop-color:#999999;stop-opacity:1"
         offset="0" /><stop
         id="stop2222"
         style="stop-color:#555555;stop-opacity:1"
         offset="1" /></linearGradient><linearGradient
       x1="303.29138"
       y1="115.33563"
       x2="303.29138"
       y2="508.32028"
       id="linearGradient4206"
       xlink:href="#linearGradient2218"
       gradientUnits="userSpaceOnUse"
       gradientTransform="translate(-6.4107151e-6,1.1845489e-5)" /><linearGradient
       x1="303.29138"
       y1="115.33563"
       x2="303.29138"
       y2="508.32028"
       id="linearGradient4206-6"
       xlink:href="#linearGradient2218-5"
       gradientUnits="userSpaceOnUse"
       gradientTransform="translate(-6.324404e-6,1.1845489e-5)" /><linearGradient
       id="linearGradient2218-5"><stop
         id="stop2220-7"
         style="stop-color:#999999;stop-opacity:1"
         offset="0" /><stop
         id="stop2222-5"
         style="stop-color:#555555;stop-opacity:1"
         offset="1" /></linearGradient><filter
       x="-0.23986097"
       y="-0.24013919"
       width="1.4797219"
       height="1.4802784"
       color-interpolation-filters="sRGB"
       id="filter3790"><feGaussianBlur
         id="feGaussianBlur3792"
         stdDeviation="37.320093" /></filter></defs><path
     d="m 643.79282,758.17954 c 20.198,0.385 137.942,153.699 155.198,153.386 18.744,0.313 -0.29,-180.718 9,-189.001 9.744,-8.686 63.744,-8.686 72,0 9.744,9.314 5.951,349.74996 -1.197,357.61496 -10.002,11.002 -349.059,11.699 -358.803,2.387 -11.721,-11.205 -8.256,-62.687 0,-72 9.744,-8.687 189.744,9.313 189,-9 0.743,-17.68696 -153,-134.99996 -155.2,-153.38396 2.944,-35.304 56.944,-89.303 90.002,-90.003 z"
     transform="matrix(-1.2,0,0,1.2,1338.983,-651.22287)"
     id="path4191-9"
     style="opacity:0.15;fill:#111111;fill-opacity:1;stroke:none;filter:url(#filter3790)" /><path
     d="m 555.35971,167.46512 c -20.198,0.385 -137.942,153.699 -155.198,153.386 -18.744,0.313 0.29,-180.718 -9,-189.001 -9.744,-8.686 -63.744,-8.686 -72,0 -9.744,9.314 -5.951,349.75 1.197,357.615 10.002,11.002 349.059,11.699 358.803,2.387 11.721,-11.205 8.256,-62.687 0,-72 -9.744,-8.687 -189.744,9.313 -189,-9 -0.743,-17.687 153,-135 155.2,-153.384 -2.944,-35.304 -56.944,-89.303 -90.002,-90.003 z"
     id="path4191"
     style="opacity:0.75;fill:url(#linearGradient4206);fill-opacity:1;stroke:#000000;stroke-width:20;stroke-linecap:round;stroke-linejoin:round;stroke-miterlimit:1" /></svg>
